build/system/IPExternalOutline.svg

<svg xmlns="http://www.w3.org/2000/svg" fill="none" viewBox="0 0 24 24" focusable="false"><path d="M0 0H24V24H0z"/><path fill="#74767B" fill-rule="evenodd" d="M16.8384 9.88977C16.8384 10.6873 16.653 11.553 16.2822 12.4869C16.1479 12.8253 16.3081 13.1967 16.6465 13.3309C16.9849 13.4652 17.356 13.3051 17.4902 12.9667C17.9224 11.8785 18.1382 10.8529 18.1382 9.88977C18.1382 9.37252 18.0833 8.86747 17.9736 8.37463C17.8835 7.96903 17.756 7.57117 17.5913 7.18201C17.4253 6.7891 17.2269 6.41752 16.9961 6.06726C16.7383 5.6755 16.4396 5.30986 16.1011 4.97131C15.7622 4.63261 15.3968 4.33419 15.0049 4.07605C14.6546 3.84542 14.283 3.64701 13.8901 3.48083C13.5011 3.31628 13.1038 3.18884 12.6982 3.09851C12.2054 2.98881 11.6999 2.93396 11.1826 2.93396C10.665 2.93396 10.1597 2.98881 9.6665 3.09851C9.2609 3.18884 8.86361 3.31628 8.47461 3.48083C8.08171 3.64701 7.71012 3.84542 7.35986 4.07605C6.96794 4.33419 6.60254 4.63261 6.26367 4.97131C5.92513 5.31002 5.62679 5.67533 5.36865 6.06726C5.13786 6.41768 4.93945 6.78927 4.77344 7.18201C4.60872 7.57117 4.48128 7.96855 4.39111 8.37415C4.28141 8.86715 4.22656 9.37235 4.22656 9.88977C4.22656 11.1139 4.57715 12.4394 5.27832 13.8663C5.82454 14.9775 6.5721 16.1294 7.521 17.3221C8.1932 18.1674 8.93213 18.9921 9.73779 19.7963C10.1426 20.2003 10.4819 20.5214 10.7563 20.7594C11.04 21.0057 11.3237 21.006 11.6079 20.7601C11.8794 20.5251 12.216 20.2079 12.6177 19.8085C12.876 19.5516 12.877 19.1473 12.6201 18.8893C12.3638 18.631 11.959 18.63 11.7012 18.8866C11.5124 19.0744 11.3397 19.2421 11.1831 19.3898C11.0243 19.2392 10.8486 19.068 10.6562 18.8761C9.88574 18.1071 9.17969 17.3193 8.53809 16.5128C7.64779 15.3934 6.9502 14.32 6.44531 13.2928C5.83268 12.0469 5.52637 10.9126 5.52637 9.88977C5.52637 9.46025 5.57275 9.04122 5.66553 8.63269C5.73844 8.3114 5.84049 7.9967 5.9707 7.6886C6.10384 7.37349 6.2627 7.07515 6.44727 6.79358C6.65885 6.4705 6.90413 6.16947 7.18311 5.8905C7.46208 5.61153 7.76318 5.36625 8.08643 5.15466C8.368 4.97026 8.66618 4.8114 8.98096 4.6781C9.28922 4.54773 9.604 4.44609 9.92529 4.37317C10.3338 4.2804 10.7529 4.23401 11.1826 4.23401C11.612 4.23401 12.0309 4.2804 12.4395 4.37317C12.7607 4.44609 13.0755 4.54773 13.3838 4.6781C13.6989 4.8114 13.9971 4.97026 14.2783 5.15466C14.6016 5.36625 14.9027 5.61153 15.1816 5.8905C15.4606 6.16931 15.7057 6.47017 15.917 6.79309C16.1016 7.07467 16.2609 7.37349 16.394 7.6886C16.5243 7.9967 16.626 8.3114 16.6992 8.63269C16.792 9.04122 16.8384 9.46025 16.8384 9.88977ZM7.96533 13.2394L7.96533 7.87488C7.96533 7.51086 8.25146 7.22498 8.61572 7.22498C8.97949 7.22498 9.26562 7.51086 9.26562 7.87488L9.26562 13.2394C9.26562 13.6034 8.97949 13.8893 8.61572 13.8893C8.25146 13.8893 7.96533 13.6034 7.96533 13.2394ZM10.8188 13.2394L10.8188 7.87488C10.8188 7.65833 10.873 7.49573 10.9814 7.38733C11.0895 7.27909 11.2524 7.22498 11.4692 7.22498L13.1982 7.22498C13.3662 7.22498 13.5303 7.24239 13.6904 7.27722C13.8281 7.3075 13.9663 7.35095 14.0986 7.4071C14.231 7.46301 14.356 7.52991 14.4741 7.60779C14.6025 7.69299 14.7227 7.79114 14.834 7.90247C14.9453 8.01379 15.0435 8.13391 15.1289 8.26257C15.2065 8.38025 15.2734 8.50549 15.3296 8.63757C15.3857 8.77014 15.4287 8.9054 15.459 9.04333C15.4941 9.20447 15.5117 9.36951 15.5117 9.53845C15.5117 9.70715 15.4941 9.87219 15.459 10.0333C15.4287 10.1713 15.3856 10.3066 15.3296 10.4391C15.2734 10.5714 15.2065 10.6964 15.1289 10.8141C15.0435 10.9427 14.9453 11.0629 14.834 11.1742C14.7227 11.2855 14.6025 11.3839 14.4736 11.4689C14.3561 11.5468 14.2311 11.6138 14.0986 11.6698C13.9663 11.7257 13.8311 11.7689 13.6934 11.799C13.5322 11.8341 13.3672 11.8517 13.1982 11.8517L12.1191 11.8517L12.1191 13.2394C12.1191 13.6034 11.833 13.8893 11.4692 13.8893C11.105 13.8893 10.8188 13.6034 10.8188 13.2394ZM13.1982 10.5519L12.1191 10.5519L12.1191 8.52502L13.1982 8.52502C13.2793 8.52502 13.3581 8.53414 13.4346 8.55237C13.4883 8.56531 13.541 8.58264 13.5923 8.60437C13.7134 8.65564 13.8208 8.72815 13.9146 8.82166C14.0083 8.91541 14.0811 9.02283 14.1323 9.14417C14.1538 9.19568 14.1714 9.24817 14.1841 9.30188C14.2026 9.37854 14.2114 9.4574 14.2114 9.53845C14.2114 9.61926 14.2026 9.69812 14.1841 9.77478C14.1714 9.82849 14.1538 9.88098 14.1323 9.93274C14.0811 10.0538 14.0083 10.1613 13.9146 10.255C13.8208 10.3488 13.7134 10.4213 13.5923 10.4725C13.541 10.4943 13.4883 10.5116 13.4346 10.5243C13.3579 10.5426 13.2793 10.5519 13.1982 10.5519ZM13.5039 17.8729C13.5039 18.2321 13.7949 18.5231 14.1538 18.5231L17.4795 18.5231L15.9658 19.9418C15.7041 20.1874 15.6904 20.5988 15.936 20.8605C16.1816 21.1224 16.5928 21.1359 16.855 20.8903L19.5679 18.3473C19.6987 18.2245 19.7729 18.0526 19.7729 17.8729C19.7729 17.6935 19.6987 17.5216 19.5679 17.3988L16.855 14.8558C16.5928 14.6102 16.1816 14.6237 15.936 14.8856C15.6904 15.1473 15.7041 15.5587 15.9658 15.8043L17.4795 17.223L14.1538 17.223C13.7949 17.223 13.5039 17.514 13.5039 17.8729Z"/></svg>

<svg xmlns="http://www.w3.org/2000/svg" fill="none" viewBox="0 0 24 24" focusable="false"><path fill="#74767B" fill-rule="evenodd" d="M16.83 9.88c0 .8-.18 1.67-.55 2.6-.14.34.02.71.36.85.34.13.71-.03.85-.37.43-1.09.64-2.11.64-3.08 0-.51-.05-1.02-.16-1.51-.09-.41-.22-.8-.38-1.19-.17-.4-.37-.77-.6-1.12-.26-.39-.56-.76-.89-1.09-.34-.34-.71-.64-1.1-.9-.35-.23-.72-.43-1.11-.59q-.585-.255-1.2-.39c-.49-.11-1-.16-1.51-.16-.52 0-1.03.05-1.52.16-.4.09-.8.22-1.19.39-.39.16-.77.36-1.12.59-.39.26-.75.56-1.09.9s-.64.7-.9 1.09c-.23.35-.43.72-.59 1.12-.17.39-.29.78-.38 1.19-.11.49-.17 1-.17 1.51 0 1.23.35 2.55 1.05 3.98.55 1.11 1.3 2.26 2.25 3.46.67.84 1.41 1.67 2.21 2.47q.615.615 1.02.96c.29.25.57.25.85.01.27-.24.61-.56 1.01-.96.26-.25.26-.66.01-.92a.65.65 0 0 0-.92 0c-.19.19-.37.36-.52.5-.16-.15-.34-.32-.53-.51-.77-.77-1.48-1.56-2.12-2.36-.89-1.12-1.58-2.19-2.09-3.22-.61-1.25-.92-2.38-.92-3.41a5.546 5.546 0 0 1 .45-2.2c.13-.31.29-.61.47-.89.21-.32.46-.63.74-.9.28-.28.58-.53.9-.74q.42-.27.9-.48c.3-.13.62-.23.94-.3a5.7 5.7 0 0 1 2.51 0c.33.07.64.17.95.3.31.14.61.3.89.48.33.21.63.46.91.74.28.27.52.58.73.9.19.28.35.58.48.89s.23.63.3.95c.1.41.14.83.14 1.25m-8.87 3.35V7.87c0-.36.29-.65.65-.65s.65.29.65.65v5.36c0 .37-.29.65-.65.65s-.65-.28-.65-.65m2.85 0V7.87c0-.22.06-.38.17-.49.1-.11.27-.16.48-.16h1.73c.17 0 .34.02.5.05.13.03.27.08.4.13.14.06.26.12.38.2q.195.135.36.3c.11.11.21.23.29.36.08.12.15.24.2.37.06.14.1.27.13.41a2.074 2.074 0 0 1 0 .99c-.03.14-.07.27-.13.4-.05.14-.12.26-.2.38-.08.13-.18.25-.29.36s-.23.21-.36.29c-.12.08-.24.15-.38.2-.13.06-.26.1-.4.13-.16.04-.33.06-.5.06h-1.08v1.38c0 .37-.28.65-.65.65-.36 0-.65-.28-.65-.65m2.38-2.68h-1.08V8.52h1.08q.12 0 .24.03c.05.01.11.03.16.05.12.05.23.12.32.22.09.09.17.2.22.32.02.05.04.1.05.16.02.07.03.15.03.23q0 .12-.03.24c-.01.05-.03.11-.05.16-.05.12-.13.23-.22.32s-.2.17-.32.22c-.05.02-.11.04-.16.05q-.12.03-.24.03m.31 7.32c0 .36.29.65.65.65h3.32l-1.51 1.42c-.26.24-.27.65-.03.92.25.26.66.27.92.03l2.71-2.55c.13-.12.21-.29.21-.47s-.08-.35-.21-.48l-2.71-2.54a.66.66 0 0 0-.92.03c-.24.26-.23.67.03.92l1.51 1.42h-3.32c-.36 0-.65.29-.65.65"/></svg>
